X: 1623
T: Joe Yates Unknown Reel
B: australian traditional tunes wiki
M:4/4
L:1/8
R: Set Tune
Q: 1/4=100
K:G
V:1 
D GB|"G"d2d2d2de|dBG4B2|"A"A2ABA2AB|AGE4G2|"D7"F2e2e2AG|F2e2e2AG|FD FAe2^d2|"G"d4zDGB|
"G"d2d2d2de|dBG4B2|"A"A2ABA2AB|AGE4G2|"D7"F2e2e2AG|F2e2e2AG|"D"FD FAe2d2|"G"G6(3DEF|
|"G"G2G2G2B2|d2d2ded2|"D"f2f2f3d|"D7"c8|f2f2f2d2|"C"c4zD GB|e2e2e2^d2|"D"d6(3DEF|
"G"G2G2G2B2|d2d2ded2|"D"f2f2f3d|"D7"c8|"D7"f2f2f2e2|d2B2A2B2|"Am"A8|"G"G4-Gz2z||
% abcbook-tune_id 6342d53a99c3bb801a211086


% abcbook-boost 0
% abcbook-tablature 
% abcbook-transpose 
% abcbook-lastupdated 1665324374638
% abcbook-soundfonts 
% abcbook-repeats 1
% NFF Book 2010

